X: 091
T: Mid Lothian
%O: 1795
%R: reel
Z: 2018 John Chambers <jc:trillian.mit.edu>
B: Wm. Campbell "10th Book of New and Favorite Country Dances, Strathey Reels" 1795 p.9
F: https://archive.org/details/campbellstenthbo00camp
M: C|
L: 1/8
K: D
% - - - - - - - - - - - - - - - - - - - - - - - - -
% Voice 1 arranged for small-scale proofreading
V: 1 staves=2
B |\
ADFA GBEG | FDAF EB,B,B | ADFA GBEG | FAEG FD-DB | ADFA GBEB | FDAF EB,B,G |
FAd=c BGed | ^cAag fdd |] f/g/ | afdf gbeg | afed cecA | (a/g/f/e/) fd gbeg |
faeg (fddg) | (a/g/f/e/) fd gbeg | fafd cecA | BdAd GdFd | EBTA>G FDD |]
% - - - - - - - - - - - - - - - - - - - - - - - - -
% Voice 1 preserves the original staff layout
V: 2 clef=bass middle=d
z |\
f2d2 e2g2 | d2D2 G2g2 | f2d2 e2g2 | a2A2 d2z2 | f2d2 e2g2 |
d2D2 G2e2 | d2f2 g2^g2 | a2A2 d2D |]\
z |\
d2f2 e2d2 | d2g2 a2g2 | f2d2 e2A2 |
[a2d2]A2 d2z2 |\
f2d2 e2c2 | d2D2 A2a2 | g2f2 e2d2 | G2A2 D2D |]
% - - - - - - - - - - - - - - - - - - - - - - - - -
%%begintext align
%% Cast off 2 Cu. up again :. Lead down the
%% middle up again Poussette quite round with
%% the 2d Cu. swing corners hands four half
%% round Right & Left ::
%%endtext
% - - - - - - - - - - - - - - - - - - - - - - - - -

%%sep 1 1 500
%%sep 1 1 500

